client/src/assets/icon-sun-empty.svg

<svg height="24" viewBox="0 0 24 24" width="24" xmlns="http://www.w3.org/2000/svg"><path d="m17.463 10.359a6.462 6.462 0 1 0 6.462 6.462 6.469 6.469 0 0 0 -6.462-6.462zm0 11.077a4.615 4.615 0 1 1 4.615-4.615 4.615 4.615 0 0 1 -4.615 4.614zm0-12.923a.923.923 0 0 0 .923-.923v-1.847a.923.923 0 1 0 -1.846 0v1.846a.923.923 0 0 0 .923.923zm0 16.615a.923.923 0 0 0 -.923.923v1.849a.923.923 0 1 0 1.846 0v-1.849a.923.923 0 0 0 -.923-.923zm7.179-14.183 1.305-1.305a.923.923 0 0 0 -1.305-1.305l-1.305 1.305a.923.923 0 0 0 1.305 1.305zm-14.358 11.755-1.306 1.3a.923.923 0 0 0 1.305 1.305l1.306-1.305a.923.923 0 0 0 -1.305-1.3zm-1.129-5.88a.923.923 0 0 0 -.923-.923h-1.846a.923.923 0 1 0 0 1.846h1.846a.923.923 0 0 0 .923-.923zm19.385-.92h-1.846a.923.923 0 1 0 0 1.846h1.846a.923.923 0 0 0 0-1.846zm-18.258-4.955a.923.923 0 0 0 1.306-1.305l-1.306-1.305a.923.923 0 0 0 -1.305 1.305zm14.361 11.749a.923.923 0 0 0 -1.305 1.306l1.305 1.3a.923.923 0 1 0 1.305-1.3z" transform="translate(-5.463 -4.82)"/></svg>

<svg xmlns="http://www.w3.org/2000/svg" width="24" height="24" viewBox="0 0 24 24">
  <path id="icon-sun-empty" d="M17.463,10.359a6.462,6.462,0,1,0,6.462,6.462A6.469,6.469,0,0,0,17.463,10.359Zm0,11.077a4.615,4.615,0,1,1,4.615-4.615A4.615,4.615,0,0,1,17.463,21.435Zm0-12.923a.923.923,0,0,0,.923-.923V5.743a.923.923,0,1,0-1.846,0V7.589A.923.923,0,0,0,17.463,8.512Zm0,16.615a.923.923,0,0,0-.923.923V27.9a.923.923,0,1,0,1.846,0V26.051A.923.923,0,0,0,17.463,25.128Zm7.179-14.183L25.947,9.64a.923.923,0,0,0-1.305-1.305L23.337,9.64a.923.923,0,0,0,1.305,1.305ZM10.284,22.7,8.978,24a.923.923,0,0,0,1.305,1.305L11.589,24A.923.923,0,0,0,10.284,22.7ZM9.155,16.82a.923.923,0,0,0-.923-.923H6.386a.923.923,0,1,0,0,1.846H8.232A.923.923,0,0,0,9.155,16.82ZM28.54,15.9H26.694a.923.923,0,1,0,0,1.846H28.54a.923.923,0,0,0,0-1.846ZM10.282,10.945A.923.923,0,0,0,11.588,9.64L10.282,8.335A.923.923,0,0,0,8.977,9.64ZM24.643,22.694A.923.923,0,0,0,23.338,24L24.643,25.3A.923.923,0,1,0,25.948,24Z" transform="translate(-5.463 -4.82)"/>
</svg>
